X:1
T:Title
%%score { ( 1 3 ) | ( 2 4 ) }
L:1/8
Q:1/4=150
M:6/4
K:Ab
V:1 treble nm="Grand Piano"
V:3 treble 
V:2 treble 
V:4 treble 
V:1
 A6 A6 | A6- A2 G2 F2 | E2 F2 A2 c4 B2 | A12 | G6 A6 | B6- B2 G2 A2 | B2 c2 B2 [B,DF]4 [=DFB]2 | %7
w: F.~H.~Shaul *|||||||
 [DGB]12 | [CEc]6 [C=EB]6 | A6- A2 A2 A2 | [FB]2 [FB]2 [FB]2 [FA_c]4 [FAc]2 | [=Ec]12 | %12
w: |||||
 F2 G2 A2 B2 A2 F2 | E2 F2 G2 A2 B2 c2 | [A=d]6 [=DAB]6 | [E,e]2- [E,-Be-]2 [E,-Ae-]2 [E,Be]6 | %16
w: ||||
 c2 B2 A2 G2 A2 G2 | .F6 z6 | [EFc]6 [EAc]6 | [EGd]12 | d6 d6 | [DBd]2 [Ad]2 [Gd]2 d6 | d6 e6 | %23
w: |||||||
 c12 | .c6 .c6 | [CG]2 [CA]2 [A,C]2 [CE]6 | [Ec]6 [EB]4 [_GA]2 | [Fd]12 | %28
w: |||||
 F2 G2 A2 B2 A2 B2[Q:1/4=148][Q:1/4=146][Q:1/4=143][Q:1/4=141][Q:1/4=139][Q:1/4=137][Q:1/4=135][Q:1/4=132][Q:1/4=130][Q:1/4=128][Q:1/4=126][Q:1/4=124][Q:1/4=121][Q:1/4=119][Q:1/4=117][Q:1/4=115] | %29
w: |
[M:13/8] c2 B2 c2 [Fd]2 [Fe]3 [Af]2 |[M:6/4] [Ae]6 [Ge]6 | [CEA]12 |] %32
w: |||
V:2
 [A,CE]6 [A,DF]6 | [A,CE]6- [A,CE]2 G,2[K:bass] F,2 | E,2 F,2 A,2 C4 B,2 | [A,CE]12 | %4
 [E,B,E]6 [F,A,E]6 | [G,B,E]6- [G,B,E]2 [E,B,E]2 [F,B,=D]2 | [F,B,D]2 [F,B,D]2 [F,B,D]2 B,,4 B,,2 | %7
 E,12 | A,6 [G,,G,]6 | [F,CF]6- [F,CF]2 [F,CF]2 [F,CF]2 | [D,D]2 [D,D]2 [D,D]2 [D,A,]4 [D,A,]2 | %11
 [C,G,]12 | F,2 G,2 A,2 B,2 A,2 F,2 | E,2 F,2 G,2 A,2 B,2 C2 | [B,,B,]6 B,,6 | %15
 z2[K:treble] D2 C2 [B,G]6 | [A,CE]6 [A,CE]6 | [A,,A,]2 [A,,A,]2 [A,,E,A,]2 [A,,A,]6 | %18
 [A,,A,]6 [=A,,=A,]6 | B,12 | [G,B]2 A,2 B,2 [A,F]2 B,2 A,2 | E,2 [E,C]2 [E,B,]2 [E,,E,G,F]6 | %22
 [E,,E,B,G]6 [E,,E,B,G]6 | [A,EA]12 | [A,,A,]6 [A,,A,]6 | [A,,A,]2 [A,,A,]2 [A,,E,]2 [A,,A,]6 | %26
 [A,,A,]6 [B,,G,]4 [C,A,]2 | [D,A,]12 | F,2 G,2 A,2 B,2 A,2 B,2 | %29
[M:13/8][K:treble] [CEA]2 [B,EG]2 [A,E_G]2[K:bass] [D,D]2 [D,D]3 [D,D]2 |[M:6/4] [E,E]6 [E,D]6 | %31
 [A,,A,]12 |] %32
V:3
 x12 | x12 | x12 | x12 | x12 | x12 | x12 | x12 | x12 | x12 | x12 | x12 | x12 | x12 | x12 | %15
 .[B,G]6 z6 | x12 | C2 C2 C2 [CE]6 | x12 | x12 | z2 A2 G2 z2 G2 F2 | x12 | x12 | x12 | %24
 E2- [E-B]2 [EA]2 E2- [E-B]2 [EA]2 | x12 | x12 | x12 | x12 |[M:13/8] x13 |[M:6/4] x12 | x12 |] %32
V:4
 x12 | x10[K:bass] x2 | x12 | x12 | x12 | x12 | x12 | x12 | x12 | x12 | x12 | x12 | x12 | x12 | %14
 x12 | E,,12[K:treble] | x12 | x12 | x12 | B,,6 z6 | [E,,E,]6 [E,,E,]6 | x12 | x12 | x12 | x12 | %25
 x12 | x12 | x12 | x12 |[M:13/8][K:treble] x6[K:bass] x7 |[M:6/4] x12 | x12 |] %32

